X:1280
T:Beare Island Reel
T:R'il Bheara
R:reel
C:Finbar Dwyer
S:from Kevin Burke & M. O'Domhnaill "Portland"
Z:id:hn-reel-412
M:C|
L:1/8
Q:1/4=200
K:Edor
D|EB^GB A^GEc|dB(3cBA Beec|~d2fd AFDF|(3GFE (3FED EDB,D|
EDEF GFGA|BAGA  B^def|~g2fg efge|dBAF E3:|
A||:Beef ga/g/fe|dBAG FDDA|Beef (3gfe fd| Be^df ~e2ef|
edBc decd|BcdB AFDF|GB~B2 AFDF|(3GFE (3FED E4:|]


